X:1
T:Title
%%score { ( 1 3 ) | 2 }
L:1/8
Q:1/4=136
M:2/2
K:A
V:1 treble nm="Grand Piano"
V:3 treble 
V:2 bass 
V:1
 [CE]4 [DF]2 [DG]2 | [EA]4 c4 | e8 | c4[K:bass][K:treble] z4 | [FB]4 [FA]4 | G8 | B4 c2 B2 | %7
w: John~P.~Hobson * *|||||||
 A4 [C^EG]4 | [CFA]8 | [DFB]4 [DFd]2 [DFB]2 | [B,DF]4 [B,DG]4 | [A,CA]8 |] %12
w: |||||
V:2
 [A,,A,]4 [D,A,]2 [B,,B,]2 | [C,A,]4 [A,E]4 | [G,B,E]8 | [A,E]4 [B,,G,]2 [C,A,]2 | %4
 [D,B,]4 [^D,B,]4 | [E,B,E]8 | [E,G,E]4 [E,A,E]2 [E,G,E]2 | [E,CE]4 C,4 | F,8 | D,4 B,,2 D,2 | %10
 D,4 E,4 | A,,8 |] %12
V:3
 x8 | x8 | x8 | z2[K:bass] A,,2[K:treble] [Dd]2 [Ac]2 | x8 | x8 | x8 | x8 | x8 | x8 | x8 | x8 |] %12

